src/app/image-svg/image-svg.component.svg

<svg width="378" height="376" viewBox="0 0 378 376" fill="#eee"><path d="M92.2871 10.1699C90.3999 25.8964 84.8432 45.0828 82.1173 45.0828C81.3834 45.0828 76.3509 42.986 71.0038 40.4697C62.4067 36.4856 49.3012 32.5016 44.4784 32.5016C43.2202 32.5016 43.8493 34.3888 46.8898 40.5746C51.5029 49.9057 55.6966 64.4789 55.1724 69.5114L54.8579 72.8664L45.422 73.6004C17.9529 75.6972 5.05709 76.9554 5.05709 77.4796C5.05709 77.899 9.67022 82.8266 15.3318 88.593C25.921 99.2871 33.6795 110.715 33.1552 114.699C32.9455 116.167 27.5985 120.57 16.5899 128.224C7.67819 134.41 0.234278 139.966 0.0245907 140.491C-0.185097 141.015 0.968185 141.749 2.64569 142.168C13.864 144.58 18.6868 146.152 22.6709 148.459C28.1227 151.709 33.7843 156.532 36.6151 160.516L38.712 163.451L26.9694 175.089C17.1141 184.944 15.4366 186.937 16.6948 188.09C17.5335 188.824 23.8241 191.235 30.7438 193.332C37.6635 195.429 43.7445 197.631 44.2687 198.155C44.7929 198.679 43.9541 204.026 41.9621 211.365C40.1798 218.18 39.0265 224.156 39.341 224.68C39.8652 225.624 57.1645 224.785 59.9952 223.737C62.6163 222.793 63.6648 225.309 64.3987 233.592C64.8181 238.415 65.4471 242.504 65.8665 242.713C66.7052 243.238 78.4478 238.205 78.4478 237.366C78.4478 237.052 77.0848 234.85 75.4073 232.439C70.5845 225.414 67.3343 218.18 64.2938 208.115C62.826 202.873 60.6243 195.848 59.5759 192.388C58.4226 188.929 57.2693 184.211 57.0596 181.904C55.5918 170.791 55.3821 166.702 56.4306 166.702C56.9548 166.702 57.479 168.484 57.479 170.581C57.5838 175.299 59.8904 187.88 61.4631 192.388C62.0921 194.066 64.0842 200.252 65.8665 206.018C70.1651 219.543 76.3509 231.705 81.6979 237.052C84.2142 239.568 89.666 243.133 94.9082 245.544L103.715 249.633L103.401 253.512L103.086 257.392L79.7059 265.15L56.3257 273.013L53.2852 282.973C51.6077 288.53 46.8898 304.991 42.696 319.669C38.5023 334.242 34.5182 346.823 33.8891 347.452C33.2601 348.081 31.3729 353.743 29.8002 360.138C28.2276 366.429 26.7598 372.51 26.4452 373.454C25.921 375.236 30.1148 375.341 104.554 375.341C179.098 375.341 183.292 375.236 183.292 373.454C183.292 372.51 178.364 367.058 172.283 361.397C166.202 355.735 161.274 350.493 161.274 349.654C161.274 348.92 165.049 345.041 169.557 341.057C181.09 331.202 181.195 330.573 176.477 318.515C168.509 298.281 151.419 267.037 145.128 261.166C143.136 259.279 142.402 257.496 142.402 254.666C142.402 250.367 143.346 249.319 148.693 247.536C154.145 245.754 159.492 241.665 163.162 236.528C166.097 232.439 167.355 231.705 175.428 229.189C180.356 227.616 184.34 225.938 184.34 225.519C184.34 224.995 182.453 222.269 180.146 219.543C175.638 214.091 174.799 210.212 177.84 209.268C178.783 208.954 182.453 208.429 185.913 208.01C189.372 207.696 192.518 207.171 192.937 206.857C193.881 206.437 188.534 191.55 187.276 191.025C186.856 190.816 186.437 189.872 186.437 188.824C186.437 187.566 187.905 186.622 191.679 185.678C198.179 184.001 213.696 176.557 213.696 175.194C213.696 174.565 211.704 173.097 209.293 171.839C195.873 165.024 184.969 157.161 187.171 155.903C187.59 155.693 191.469 154.435 195.663 153.177C199.857 151.919 206.672 149.298 210.865 147.41C218.1 144.16 232.988 135.353 232.358 134.724C231.939 134.41 203.526 122.248 200.8 121.304C199.542 120.78 199.228 120.151 199.752 119.207C200.171 118.369 207.091 111.659 215.059 104.32C222.923 96.8757 229.423 90.4802 229.423 90.0608C229.423 89.2221 222.922 88.0688 203.736 85.3429C196.816 84.2944 190.735 83.246 190.316 82.8266C189.792 82.4072 194.615 73.181 201.01 62.3821C211.39 44.6635 213.382 40.8891 212.333 40.8891C212.124 40.8891 203.526 43.9296 193.252 47.7039C178.259 53.1558 174.17 54.2043 173.122 53.1558C170.815 50.8493 168.613 33.55 168.613 18.0331V3.04048L160.121 7.54876C150.161 12.8958 136.846 23.2753 130.66 30.5096C128.353 33.3403 125.942 35.6469 125.523 35.6469C124.998 35.6469 121.014 30.8241 116.506 24.848C108.748 14.5733 95.6421 6.4671e-06 94.1743 6.4671e-06C93.7549 6.4671e-06 92.9162 4.61313 92.2871 10.1699ZM95.2228 272.908C91.3435 275.949 71.5281 328.266 73.1007 330.992C73.6249 331.935 78.1332 336.234 83.1657 340.638C88.3031 345.041 92.6017 349.13 92.8114 349.759C93.021 350.388 91.7629 352.695 89.9806 354.896C88.3031 357.098 86.8353 358.251 86.8353 357.517C86.8353 356.888 87.7788 355.001 89.037 353.533L91.2387 350.703L81.1737 341.267C74.1492 334.661 71.1087 331.097 71.1087 329.419C71.1087 326.064 83.0609 293.982 90.3999 277.522C92.1823 273.537 93.6501 271.545 94.9082 271.545C96.5857 271.65 96.5857 271.755 95.2228 272.908Z"></path><path d="M270.733 147.306C241.272 152.653 225.021 164.29 203.948 195.429C199.335 202.139 199.02 202.978 199.02 209.478C199.02 214.51 197.972 219.438 195.246 227.93C190.633 242.294 190.842 245.649 197.447 256.867C200.068 261.271 202.165 265.465 202.165 265.989C202.165 266.618 200.802 268.61 199.02 270.497C193.463 276.473 193.568 285.699 199.335 291.885C202.69 295.345 210.553 298.595 212.65 297.232C213.174 296.918 212.44 294.506 211.077 291.78C209.609 289.159 208.456 286.224 208.561 285.28C208.561 284.232 209.085 284.546 209.714 286.224C211.496 290.103 219.779 302.894 223.868 307.926C231.941 317.991 249.345 328.161 265.596 332.46C270.524 333.718 279.226 334.871 286.565 335.186C293.484 335.5 298.202 336.129 297.049 336.549C290.758 338.75 261.821 334.661 248.506 329.629L241.587 327.008L239.804 329.419C233.199 338.121 225.65 357.937 223.763 371.357L223.239 375.341H288.242C349.681 375.341 353.245 375.236 352.721 373.454C352.407 372.51 350.729 366.219 349.052 359.509C345.382 345.041 342.446 337.807 337.728 331.621C335.841 329.105 334.269 326.484 334.269 325.75C334.373 325.121 336.994 322.604 340.245 320.298C346.116 316.104 354.189 307.612 358.592 300.902C360.06 298.7 362.367 296.918 364.464 296.289C366.246 295.764 369.601 293.563 371.907 291.466C379.142 284.546 379.876 275.11 373.48 269.553C371.278 267.666 370.964 266.723 371.593 263.368C372.012 261.271 372.641 259.279 373.061 258.964C373.48 258.65 374.424 255.609 375.158 252.149C376.206 247.117 376.206 243.238 375.158 232.439C374.424 225.1 373.375 219.124 372.851 219.124C372.327 219.124 372.012 216.188 372.117 212.518C372.327 206.752 371.803 204.97 368.028 197.631C362.996 187.67 355.552 176.767 348.003 168.589C343.39 163.556 340.349 161.564 328.502 155.693C320.115 151.604 311.517 148.144 307.324 147.306C298.622 145.418 280.798 145.418 270.733 147.306Z" data-selected="true" data-label-id="0" data-metatip="true"></path><path d="M147.646 261.69C147.646 262.005 149.638 264.94 152.154 268.19C154.67 271.441 158.13 276.578 160.017 279.409C164.945 287.272 176.373 311.805 179.728 321.556C183.397 331.935 183.083 332.669 172.074 342C167.88 345.565 164.421 349.34 164.421 350.178C164.421 351.122 169.138 356.154 174.905 361.606C181.196 367.373 185.389 372.091 185.389 373.349C185.389 375.236 186.228 375.341 200.067 375.341C211.076 375.341 214.746 375.026 214.746 373.978C214.746 369.574 189.059 277.207 186.647 272.804C186.228 271.965 179.518 269.763 171.76 267.771C164.001 265.884 155.928 263.577 153.726 262.634C149.428 260.956 147.646 260.642 147.646 261.69Z"></path></svg>

<svg width="378" height="376" fill="#eee">
<path d="M92.287 10.17c-1.887 15.726-7.444 34.913-10.17 34.913-.734 0-5.766-2.097-11.113-4.613-8.597-3.984-21.703-7.968-26.526-7.968-1.258 0-.629 1.887 2.412 8.073 4.613 9.33 8.807 23.904 8.282 28.936l-.314 3.355-9.436.734c-27.47 2.097-40.365 3.355-40.365 3.88 0 .419 4.613 5.347 10.275 11.113 10.589 10.694 18.347 22.122 17.823 26.106-.21 1.468-5.556 5.871-16.565 13.525C7.678 134.41.234 139.966.025 140.491c-.21.524.943 1.258 2.62 1.677 11.219 2.412 16.042 3.984 20.026 6.291 5.452 3.25 11.113 8.073 13.944 12.057l2.097 2.935-11.743 11.638c-9.855 9.855-11.532 11.848-10.274 13.001.838.734 7.13 3.145 14.049 5.242 6.92 2.097 13 4.299 13.525 4.823.524.524-.315 5.871-2.307 13.21-1.782 6.815-2.936 12.791-2.621 13.315.524.944 17.823.105 20.654-.943 2.621-.944 3.67 1.572 4.404 9.855.42 4.823 1.048 8.912 1.468 9.121.838.525 12.58-4.508 12.58-5.347 0-.314-1.362-2.516-3.04-4.927-4.822-7.025-8.073-14.259-11.113-24.324-1.468-5.242-3.67-12.267-4.718-15.727-1.153-3.459-2.307-8.177-2.516-10.484-1.468-11.113-1.678-15.202-.63-15.202.525 0 1.049 1.782 1.049 3.879.105 4.718 2.411 17.299 3.984 21.807.63 1.678 2.621 7.864 4.404 13.63 4.298 13.525 10.484 25.687 15.83 31.034 2.517 2.516 7.969 6.081 13.211 8.492l8.807 4.089-.314 3.879-.315 3.88-23.38 7.758-23.38 7.863-3.04 9.96c-1.678 5.557-6.396 22.018-10.59 36.696-4.194 14.573-8.178 27.154-8.807 27.783-.629.629-2.516 6.291-4.089 12.686-1.572 6.291-3.04 12.372-3.355 13.316-.524 1.782 3.67 1.887 78.109 1.887 74.544 0 78.738-.105 78.738-1.887 0-.944-4.928-6.396-11.009-12.057-6.081-5.662-11.009-10.904-11.009-11.743 0-.734 3.775-4.613 8.283-8.597 11.533-9.855 11.638-10.484 6.92-22.542-7.968-20.234-25.058-51.478-31.349-57.349-1.992-1.887-2.726-3.67-2.726-6.5 0-4.299.944-5.347 6.291-7.13 5.452-1.782 10.799-5.871 14.469-11.008 2.935-4.089 4.193-4.823 12.266-7.339 4.928-1.573 8.912-3.251 8.912-3.67 0-.524-1.887-3.25-4.194-5.976-4.508-5.452-5.347-9.331-2.306-10.275.943-.314 4.613-.839 8.073-1.258 3.459-.314 6.605-.839 7.024-1.153.944-.42-4.403-15.307-5.661-15.832-.42-.209-.839-1.153-.839-2.201 0-1.258 1.468-2.202 5.242-3.146 6.5-1.677 22.017-9.121 22.017-10.484 0-.629-1.992-2.097-4.403-3.355-13.42-6.815-24.324-14.678-22.122-15.936.419-.21 4.298-1.468 8.492-2.726 4.194-1.258 11.009-3.879 15.202-5.767 7.235-3.25 22.123-12.057 21.493-12.686-.419-.314-28.832-12.476-31.558-13.42-1.258-.524-1.572-1.153-1.048-2.097.419-.838 7.339-7.548 15.307-14.887 7.864-7.444 14.364-13.84 14.364-14.26 0-.838-6.501-1.991-25.687-4.717-6.92-1.049-13.001-2.097-13.42-2.516-.524-.42 4.299-9.646 10.694-20.445 10.38-17.718 12.372-21.493 11.323-21.493-.209 0-8.807 3.04-19.081 6.815-14.993 5.452-19.082 6.5-20.13 5.452-2.307-2.307-4.509-19.606-4.509-35.123V3.04l-8.492 4.509c-9.96 5.347-23.275 15.726-29.461 22.96-2.307 2.831-4.718 5.138-5.137 5.138-.525 0-4.509-4.823-9.017-10.799C108.748 14.573 95.642 0 94.174 0c-.42 0-1.258 4.613-1.887 10.17Zm2.936 262.738c-3.88 3.041-23.695 55.358-22.122 58.084.524.943 5.032 5.242 10.065 9.646 5.137 4.403 9.436 8.492 9.645 9.121.21.629-1.048 2.936-2.83 5.137-1.678 2.202-3.146 3.355-3.146 2.621 0-.629.944-2.516 2.202-3.984l2.202-2.83-10.065-9.436c-7.025-6.606-10.065-10.17-10.065-11.848 0-3.355 11.952-35.437 19.29-51.897 1.783-3.985 3.251-5.977 4.51-5.977 1.677.105 1.677.21.314 1.363Z"/>
<path d="M270.733 147.306c-29.461 5.347-45.712 16.984-66.785 48.123-4.613 6.71-4.928 7.549-4.928 14.049 0 5.032-1.048 9.96-3.774 18.452-4.613 14.364-4.404 17.719 2.201 28.937 2.621 4.404 4.718 8.598 4.718 9.122 0 .629-1.363 2.621-3.145 4.508-5.557 5.976-5.452 15.202.315 21.388 3.355 3.46 11.218 6.71 13.315 5.347.524-.314-.21-2.726-1.573-5.452-1.468-2.621-2.621-5.556-2.516-6.5 0-1.048.524-.734 1.153.944 1.782 3.879 10.065 16.67 14.154 21.702 8.073 10.065 25.477 20.235 41.728 24.534 4.928 1.258 13.63 2.411 20.969 2.726 6.919.314 11.637.943 10.484 1.363-6.291 2.201-35.228-1.888-48.543-6.92l-6.919-2.621-1.783 2.411c-6.605 8.702-14.154 28.518-16.041 41.938l-.524 3.984h65.003c61.439 0 65.003-.105 64.479-1.887-.314-.944-1.992-7.235-3.669-13.945-3.67-14.468-6.606-21.702-11.324-27.888-1.887-2.516-3.459-5.137-3.459-5.871.104-.629 2.725-3.146 5.976-5.452 5.871-4.194 13.944-12.686 18.347-19.396 1.468-2.202 3.775-3.984 5.872-4.613 1.782-.525 5.137-2.726 7.443-4.823 7.235-6.92 7.969-16.356 1.573-21.913-2.202-1.887-2.516-2.83-1.887-6.185.419-2.097 1.048-4.089 1.468-4.404.419-.314 1.363-3.355 2.097-6.815 1.048-5.032 1.048-8.911 0-19.71-.734-7.339-1.783-13.315-2.307-13.315s-.839-2.936-.734-6.606c.21-5.766-.314-7.548-4.089-14.887-5.032-9.961-12.476-20.864-20.025-29.042-4.613-5.033-7.654-7.025-19.501-12.896-8.387-4.089-16.985-7.549-21.178-8.387-8.702-1.888-26.526-1.888-36.591 0Z" data-selected="true" data-label-id="0" data-metatip="true"/>
<path d="M147.646 261.69c0 .315 1.992 3.25 4.508 6.5 2.516 3.251 5.976 8.388 7.863 11.219 4.928 7.863 16.356 32.396 19.711 42.147 3.669 10.379 3.355 11.113-7.654 20.444-4.194 3.565-7.653 7.34-7.653 8.178 0 .944 4.717 5.976 10.484 11.428 6.291 5.767 10.484 10.485 10.484 11.743 0 1.887.839 1.992 14.678 1.992 11.009 0 14.679-.315 14.679-1.363 0-4.404-25.687-96.771-28.099-101.174-.419-.839-7.129-3.041-14.887-5.033-7.759-1.887-15.832-4.194-18.034-5.137-4.298-1.678-6.08-1.992-6.08-.944Z"/>
</svg>
